img/svg/repair-tools-wt.svg

<svg width="36" height="36" viewBox="0 0 36 36" fill="none" xmlns="http://www.w3.org/2000/svg">
<g clip-path="url(#clip0)">
<path d="M18.9209 11.2405C18.603 11.5587 18.603 12.0743 18.9211 12.3925C19.2392 12.7106 19.755 12.7105 20.0729 12.3923L20.7454 11.7195C20.9873 11.4775 21.0523 11.1102 20.9078 10.8C20.4591 9.83564 20.2315 8.83798 20.2315 7.83462C20.2315 5.79199 21.1207 3.86811 22.6205 2.53887L22.6231 7.87054C22.6231 8.13761 22.7543 8.38774 22.9739 8.5398L26.8382 11.2157C27.117 11.4087 27.4864 11.4089 27.7653 11.2159L31.631 8.54135C31.851 8.3892 31.9822 8.13891 31.9822 7.87144L31.9816 2.5401C33.4812 3.86811 34.3705 5.79044 34.371 7.83137C34.371 9.72015 33.6356 11.496 32.3001 12.8316C30.9658 14.1663 29.1922 14.9011 27.3053 14.9011C27.3035 14.9011 27.3017 14.9011 27.2998 14.9011C26.6506 14.9006 25.3762 14.5863 24.9398 14.4651C24.657 14.3865 24.3535 14.4664 24.1459 14.6739L21.6697 17.1502C21.3517 17.4682 21.3517 17.9839 21.6697 18.3021C21.8288 18.4611 22.0372 18.5406 22.2456 18.5406C22.4541 18.5406 22.6626 18.4611 22.8215 18.3021L24.9679 16.1556C25.5663 16.3036 26.595 16.5295 27.2985 16.53C27.3009 16.53 27.303 16.53 27.3053 16.53C29.627 16.5299 31.81 15.6256 33.452 13.9833C35.0949 12.34 35.9998 10.1552 35.9998 7.8312C35.999 4.70083 34.3005 1.79802 31.5671 0.255479C31.3149 0.113189 31.0062 0.115388 30.756 0.261425C30.506 0.407461 30.3522 0.675262 30.3523 0.964891L30.353 7.44465L27.3019 9.55546L24.2519 7.44327L24.2488 0.963018C24.2486 0.67347 24.0947 0.40575 23.8447 0.259877C23.5947 0.113922 23.2859 0.111886 23.0337 0.254257C20.3006 1.79819 18.6027 4.70279 18.6027 7.83454C18.6027 8.89239 18.8047 9.9403 19.204 10.9575L18.9209 11.2405Z" fill="#fff"/>
<path d="M16.7643 22.0558L5.46565 33.3548C5.04106 33.7796 4.47663 34.0137 3.87635 34.0141C3.87595 34.0141 3.87562 34.0141 3.87513 34.0141C3.27502 34.014 2.71051 33.7801 2.286 33.3556C1.86158 32.9307 1.62815 32.3655 1.62888 31.764C1.62953 31.1643 1.86337 30.6014 2.28836 30.1778L12.0067 20.4586C12.3247 20.1405 12.3247 19.6249 12.0067 19.3067C11.6886 18.9888 11.1729 18.9887 10.8548 19.3068L1.13759 29.025C0.405206 29.7549 0.00122449 30.727 2.77241e-06 31.7622C-0.00121895 32.7991 0.401378 33.7739 1.13392 34.5072C1.86646 35.2398 2.83993 35.6431 3.87513 35.6431C3.87587 35.6431 3.8766 35.6431 3.87725 35.6431C4.91254 35.6425 5.88584 35.2388 6.61773 34.5065L17.9161 23.2077C18.2342 22.8896 18.2342 22.3739 17.9161 22.0558C17.598 21.7378 17.0823 21.7378 16.7643 22.0558Z" fill="#fff"/>
<path d="M3.86356 30.7751C3.59527 30.7753 3.34327 30.8801 3.15725 31.0671C2.76573 31.4562 2.76377 32.092 3.15285 32.4842C3.15383 32.4852 3.1548 32.4861 3.15578 32.4872C3.35085 32.6818 3.60692 32.7792 3.8634 32.7792C4.12045 32.7792 4.37791 32.6813 4.57444 32.4851C4.96425 32.0935 4.96311 31.4577 4.57355 31.0693C4.38418 30.8796 4.13234 30.7751 3.86422 30.7751C3.86405 30.7751 3.86381 30.7751 3.86356 30.7751Z" fill="#fff"/>
<path d="M30.4926 26.6462C30.4082 26.5619 30.3064 26.4972 30.1943 26.4565L27.8586 25.6096L19.4216 17.1724L20.7853 15.8088C21.1033 15.4907 21.1034 14.975 20.7853 14.6569C20.5439 14.4156 20.1887 14.3573 19.8924 14.4822L7.13093 1.72227C6.35913 0.947948 5.33126 0.520834 4.23668 0.519531C4.23505 0.519531 4.23359 0.519531 4.23196 0.519531C3.13738 0.519531 2.10853 0.945178 1.33436 1.71845C0.559223 2.49359 0.13268 3.52374 0.133332 4.61921C0.133902 5.71379 0.560771 6.74297 1.3351 7.51689L14.0967 20.2779C13.9717 20.5741 14.0299 20.9293 14.2713 21.1707C14.5894 21.4887 15.1052 21.4889 15.4232 21.1707L16.7865 19.8074L25.2236 28.2444L26.0706 30.5802C26.1112 30.6923 26.176 30.7941 26.2604 30.8784L30.9945 35.6124C31.1535 35.7714 31.3619 35.851 31.5704 35.851C31.7788 35.851 31.9873 35.7714 32.1463 35.6124L35.2266 32.5322C35.3793 32.3794 35.4651 32.1722 35.4651 31.9562C35.4651 31.7402 35.3793 31.5331 35.2266 31.3803L30.4926 26.6462ZM17.6937 16.5965C17.692 16.5982 17.6902 16.6 17.6885 16.6018L15.2063 19.0839L2.48677 6.36489C2.01991 5.89827 1.76262 5.27805 1.76229 4.6184C1.76197 3.95835 2.01902 3.33755 2.48588 2.87069C2.95216 2.40489 3.57215 2.14857 4.23196 2.14857C4.23293 2.14857 4.23391 2.14857 4.23481 2.14857C4.89397 2.1493 5.51264 2.40635 5.97804 2.87321L18.6982 15.592L17.699 16.5913C17.6973 16.593 17.6955 16.5947 17.6937 16.5965ZM31.5704 33.8847L27.5403 29.8546L26.6933 27.5189C26.6527 27.4068 26.588 27.3049 26.5036 27.2206L17.9384 18.6556L18.2698 18.3243L26.8348 26.8895C26.9192 26.9737 27.021 27.0385 27.1331 27.0792L29.4688 27.9261L33.4988 31.9562L31.5704 33.8847Z" fill="#fff"/>
<path d="M4.80389 4.03755C4.48584 3.71958 3.97011 3.71958 3.65205 4.03755C3.334 4.35561 3.334 4.87133 3.65205 5.18947L14.8879 16.4252C15.0469 16.5842 15.2554 16.6638 15.4638 16.6638C15.6722 16.6638 15.8807 16.5842 16.0397 16.4252C16.3578 16.1072 16.3578 15.5914 16.0397 15.2733L4.80389 4.03755Z" fill="#fff"/>
</g>
<defs>
<clipPath id="clip0">
<rect width="36" height="36" fill="white"/>
</clipPath>
</defs>
</svg>

<svg width="36" height="36" viewBox="0 0 36 36" fill="none" xmlns="http://www.w3.org/2000/svg"><g clip-path="url(#a)" fill="#fff"><path d="M18.92 11.24a.815.815 0 0 0 1.153 1.152l.672-.672a.814.814 0 0 0 .163-.92 6.994 6.994 0 0 1-.677-2.965c0-2.043.89-3.967 2.39-5.296l.002 5.332c0 .267.131.517.35.669l3.865 2.676a.815.815 0 0 0 .927 0l3.866-2.675a.814.814 0 0 0 .351-.67v-5.33a7.08 7.08 0 0 1 2.389 5.29 7.025 7.025 0 0 1-2.07 5 7.016 7.016 0 0 1-4.996 2.07H27.3c-.65 0-1.924-.315-2.36-.436a.815.815 0 0 0-.794.209L21.67 17.15a.815.815 0 0 0 1.151 1.152l2.147-2.146c.598.148 1.627.373 2.33.374h.007a8.636 8.636 0 0 0 6.147-2.547A8.645 8.645 0 0 0 36 7.831 8.721 8.721 0 0 0 31.567.255a.815.815 0 0 0-1.215.71l.001 6.48-3.051 2.11-3.05-2.112-.003-6.48a.815.815 0 0 0-1.215-.709 8.723 8.723 0 0 0-4.431 7.58c0 1.058.202 2.106.601 3.123l-.283.284zm-2.156 10.816L5.466 33.355a2.235 2.235 0 0 1-1.59.66 2.238 2.238 0 0 1-1.59-.66 2.233 2.233 0 0 1-.657-1.591c0-.6.234-1.163.66-1.586l9.718-9.72a.815.815 0 0 0-1.152-1.151l-9.717 9.718A3.845 3.845 0 0 0 0 31.762a3.852 3.852 0 0 0 1.134 2.745 3.851 3.851 0 0 0 2.741 1.136h.002a3.853 3.853 0 0 0 2.74-1.136l11.3-11.3a.814.814 0 0 0-1.153-1.151z"/><path d="M3.864 30.775a1.004 1.004 0 0 0-.71 1.71l.002.002a1.003 1.003 0 0 0 1.419-.002 1.003 1.003 0 0 0-.71-1.71h-.001zm26.629-4.129a.816.816 0 0 0-.299-.19l-2.335-.846-8.437-8.438 1.363-1.363a.815.815 0 0 0-.893-1.327L7.131 1.722A4.066 4.066 0 0 0 4.237.52h-.005a4.073 4.073 0 0 0-2.898 1.198 4.072 4.072 0 0 0-1.2 2.901c0 1.095.427 2.124 1.201 2.898l12.762 12.76a.815.815 0 0 0 1.326.894l1.364-1.364 8.437 8.437.847 2.336c.04.112.105.214.19.298l4.733 4.734a.812.812 0 0 0 1.152 0l3.08-3.08a.815.815 0 0 0 0-1.152l-4.733-4.734zm-12.8-10.05a.262.262 0 0 0-.005.006l-2.482 2.482-12.72-12.72a2.455 2.455 0 0 1-.724-1.746c0-.66.257-1.28.724-1.747a2.454 2.454 0 0 1 1.746-.722h.003c.659 0 1.278.257 1.743.724l12.72 12.719-.999 1-.005.005zm13.877 17.29l-4.03-4.03-.847-2.336a.813.813 0 0 0-.19-.298l-8.565-8.565.332-.332 8.565 8.566a.817.817 0 0 0 .298.19l2.336.846 4.03 4.03-1.929 1.929z"/><path d="M4.804 4.038a.815.815 0 0 0-1.152 1.151l11.236 11.236a.812.812 0 0 0 1.152 0 .814.814 0 0 0 0-1.152L4.804 4.038z"/></g><defs><clipPath id="a"><path fill="#fff" d="M0 0h36v36H0z"/></clipPath></defs></svg>
